tools/download-figma-icons/icons/solid/connection.svg

<svg width="24" height="24" viewBox="0 0 24 24" fill="none" xmlns="http://www.w3.org/2000/svg">
<path d="M23.9939 20.2541C23.9939 21.0489 23.6779 21.8112 23.1155 22.3732C22.553 22.9352 21.7901 23.2509 20.9947 23.2509C20.1992 23.2509 19.4364 22.9352 18.8739 22.3732C18.3114 21.8112 17.9954 21.0489 17.9954 20.2541C18.0009 19.765 18.1244 19.2844 18.3553 18.8531L14.1864 15.0097C13.5556 15.4871 12.7882 15.7497 11.997 15.7589H11.8395L11.1722 18.3811C11.8119 18.7348 12.3003 19.3099 12.5455 19.9982C12.7907 20.6865 12.7758 21.4405 12.5037 22.1186C12.2315 22.7967 11.7208 23.3521 11.0677 23.6804C10.4145 24.0087 9.66374 24.0873 8.95664 23.9013C8.24954 23.7154 7.63477 23.2778 7.22791 22.6708C6.82105 22.0637 6.65012 21.3291 6.74727 20.605C6.84442 19.8809 7.20295 19.2172 7.75546 18.7387C8.30796 18.2602 9.01638 17.9998 9.74752 18.0065L10.4074 15.3768C9.80469 15.0974 9.28716 14.663 8.90773 14.1181L5.95347 15.3393C5.97995 15.4777 5.995 15.618 5.99846 15.7589C6.00139 16.4699 5.7512 17.1589 5.29258 17.7026C4.83396 18.2463 4.1968 18.6093 3.49496 18.7268C2.79311 18.8444 2.07231 18.7087 1.46135 18.3441C0.850392 17.9795 0.389084 17.4097 0.159857 16.7365C-0.0693696 16.0634 -0.0515792 15.3307 0.21005 14.6695C0.471678 14.0082 0.960098 13.4614 1.58803 13.1269C2.21597 12.7923 2.94251 12.6917 3.63782 12.8431C4.33314 12.9945 4.95193 13.388 5.38362 13.9533L8.32288 12.7621C8.27276 12.5155 8.24764 12.2645 8.2479 12.0129C8.24919 11.2801 8.46557 10.5637 8.87024 9.95256L4.49884 5.59219C3.9261 5.92257 3.26014 6.05453 2.60456 5.96756C1.94899 5.88058 1.34056 5.57955 0.873949 5.11128C0.407335 4.64302 0.108695 4.03379 0.0244938 3.37837C-0.0597077 2.72296 0.0752502 2.05812 0.408371 1.48728C0.741491 0.916438 1.25409 0.471615 1.86643 0.222015C2.47876 -0.0275845 3.15649 -0.0679657 3.79417 0.107154C4.43186 0.282275 4.99373 0.663076 5.39239 1.19031C5.79104 1.71755 6.00411 2.36166 5.99846 3.02243C5.99071 3.55081 5.84326 4.06775 5.57107 4.52083L9.93497 8.87371C10.6201 8.41683 11.4382 8.20119 12.2597 8.26089C13.0813 8.32059 13.8595 8.65223 14.4713 9.20336L18.2204 6.39384C17.9794 5.79858 17.9361 5.14172 18.097 4.52004C18.2578 3.89836 18.6142 3.34473 19.1137 2.94072C19.6132 2.53672 20.2294 2.30371 20.8714 2.27602C21.5135 2.24833 22.1474 2.42742 22.6799 2.78692C23.2124 3.14641 23.6152 3.66729 23.8291 4.27282C24.0429 4.87834 24.0565 5.53648 23.8677 6.15028C23.6789 6.76407 23.2979 7.30106 22.7806 7.68211C22.2634 8.06317 21.6373 8.26815 20.9947 8.26685C20.3165 8.26501 19.6597 8.02951 19.1351 7.60006L15.3861 10.4171C15.6204 10.9166 15.7432 11.4612 15.746 12.0129C15.7404 12.6899 15.5512 13.3527 15.1986 13.9308L19.3676 17.7443C19.8504 17.4259 20.4162 17.2565 20.9947 17.2573C21.7901 17.2573 22.553 17.573 23.1155 18.135C23.6779 18.6971 23.9939 19.4593 23.9939 20.2541Z" fill="black"/>
</svg>

<svg xmlns="http://www.w3.org/2000/svg" width="24" height="24" fill="none" viewBox="0 0 24 24"><path fill="currentColor" d="M23.994 20.254a2.996 2.996 0 0 1-3 2.997 3 3 0 0 1-2.999-2.997c.006-.489.13-.97.36-1.4l-4.169-3.844a3.7 3.7 0 0 1-2.189.749h-.158l-.667 2.622a2.997 2.997 0 1 1-3.944 4.29 2.995 2.995 0 0 1 2.52-4.664l.66-2.63a3.75 3.75 0 0 1-1.5-1.259L5.953 15.34q.04.208.045.42a2.996 2.996 0 0 1-2.503 2.968 3 3 0 0 1-3.335-1.99 2.994 2.994 0 0 1 1.428-3.61 3 3 0 0 1 3.796.826l2.939-1.19a3.74 3.74 0 0 1 .547-2.81L4.5 5.593A3 3 0 0 1 .024 3.377 2.995 2.995 0 0 1 1.866.222a3.002 3.002 0 0 1 4.132 2.8 3 3 0 0 1-.427 1.499l4.364 4.353a3.706 3.706 0 0 1 4.536.33l3.75-2.81a2.99 2.99 0 0 1 .893-3.453 3 3 0 0 1 4.715 1.332 2.995 2.995 0 0 1-2.834 3.994 2.95 2.95 0 0 1-1.86-.667l-3.749 2.817c.234.5.357 1.044.36 1.596a3.74 3.74 0 0 1-.547 1.918l4.169 3.813a2.95 2.95 0 0 1 1.627-.487 3 3 0 0 1 2.999 2.997"/></svg>
